assets/images/logo/logo.svg

<svg fill="none" height="26" viewBox="0 0 146 26" width="146" xmlns="http://www.w3.org/2000/svg"><path d="m30.3445 20.5833h2.9143v-5.3244h3.0794c3.7157 0 5.7109-2.1851 5.7109-5.2166 0-3.0084-1.9716-5.21661-5.6716-5.21661h-6.033zm2.9143-7.6711v-5.70134h2.671c2.1838 0 3.15 1.15412 3.15 2.83144 0 1.6773-.9662 2.8699-3.1343 2.8699zm14.0398-8.08651h-2.8437v15.75761h2.8437zm6.3965 15.99611c1.8931 0 3.0243-.8695 3.5428-1.862h.0942v1.6235h2.7338v-7.9096c0-3.12382-2.6002-4.06251-4.9019-4.06251-2.5373 0-4.4855 1.10796-5.1139 3.26231l2.6552.3693c.2828-.8079 1.084-1.5003 2.4744-1.5003 1.3198 0 2.0425.6617 2.0425 1.8234v.0462c0 .8003-.8563.8387-2.9851 1.0619-2.341.2461-4.5798.9309-4.5798 3.5931 0 2.3236 1.7361 3.5547 4.0378 3.5547zm.7384-2.0466c-1.1863 0-2.0346-.531-2.0346-1.5543 0-1.0694.9505-1.5157 2.2231-1.6927.7462-.1 2.2388-.2847 2.608-.5771v1.3926c0 1.3158-1.084 2.4315-2.7965 2.4315zm8.4918 1.8081h2.8438v-11.81822h-2.8438zm1.4297-13.49555c.9034 0 1.6418-.67708 1.6418-1.50804 0-.83866-.7384-1.51575-1.6418-1.51575-.9112 0-1.6496.67709-1.6496 1.51575 0 .83096.7384 1.50804 1.6496 1.50804zm7.1819 6.57085c0-1.7082 1.0527-2.693 2.5531-2.693 1.469 0 2.3488.9463 2.3488 2.5237v7.094h2.8437v-7.5249c.0078-2.8314-1.6418-4.44721-4.1321-4.44721-1.8067 0-3.0478.84636-3.5977 2.16201h-.1414v-2.00812h-2.718v11.81822h2.8436zm11.3356 6.9247 1.7204-4.7473h6.7557l1.7204 4.7473h1.5397l-5.8524-15.75761h-1.5711l-5.8524 15.75761zm2.1917-6.0399 2.8515-7.84804h.1101l2.8515 7.84804zm16.3548 6.2861c2.192 0 3.213-1.3619 3.708-2.439h.165v2.1928h1.367v-15.75761h-1.406v6.19381h-.126c-.479-1.06183-1.477-2.416-3.684-2.416-2.9772 0-4.9883 2.4621-4.9883 6.1015 0 3.67 2.0032 6.1245 4.9643 6.1245zm.165-1.2542c-2.4034 0-3.7231-2.1389-3.7231-4.8934 0-2.7237 1.304-4.83195 3.7231-4.83195 2.357 0 3.693 2.00045 3.693 4.83195 0 2.8545-1.352 4.8934-3.693 4.8934zm9.057 1.008h1.4v-7.571c0-1.839 1.248-3.14697 2.922-3.14697 1.649 0 2.608 1.07727 2.608 2.67757v8.0404h1.429v-7.7788c0-1.7004 1.037-2.93917 2.876-2.93917 1.594 0 2.654.93867 2.654 2.80067v7.9173h1.398v-7.9173c0-2.6468-1.39-4.05481-3.629-4.05481-1.759 0-3.031.83866-3.573 2.14671h-.103c-.534-1.33882-1.595-2.14671-3.26-2.14671-1.579 0-2.757.74633-3.236 1.96971h-.126v-1.81582h-1.36zm19.005 0h1.407v-11.81822h-1.407zm.715-13.84947c.573 0 1.052-.44626 1.052-.98485s-.479-.98485-1.052-.98485c-.574 0-1.045.44626-1.045.98485s.471.98485 1.045.98485zm5.787 6.46307c0-2.062 1.383-3.33157 3.284-3.33157 1.854 0 3.049 1.21567 3.049 3.14697v7.571h1.398v-7.6557c0-2.8007-1.658-4.31641-4.093-4.31641-1.767 0-2.985.8002-3.55 2.00821h-.126v-1.85432h-1.36v11.81822h1.398z" fill="#262d3f"/><g fill="#2f80ed"><path d="m26.1608 11.2572-5.1296-8.66671c-.513-.94202-1.5389-1.50724-2.6289-1.50724h-10.25913c-1.09003 0-2.11594.56522-2.62889 1.50724l-5.129563 8.66671c-.512956.942-.512956 2.0724 0 3.0144l5.129563 8.6667c.51295.9421 1.53886 1.5073 2.62889 1.5073h10.25913c1.09 0 2.1159-.5652 2.6289-1.5073l5.1296-8.6667c.5128-.942.5128-2.0724 0-3.0144zm-1.9877 1.884-5.1296 8.6667c-.1283.2512-.3847.3768-.7053.3768h-10.19503c-.25647 0-.57707-.1256-.70531-.3768l-5.12956-8.6667c-.12824-.2511-.12824-.5652 0-.8164l5.12956-8.66667c.12824-.2512.38471-.37681.70531-.37681h10.25913c.2565 0 .577.12561.7053.37681l5.1295 8.66667c.1283.314.1283.5653-.064.8164z"/><path d="m17.9394 7.3125h-2.0546c-1.7 0-3.0921 1.36349-3.0921 3.0286v2.1888h-2.2347c-1.70008 0-3.09218 1.3635-3.09218 3.0286v2.0124c0 .87.73259 1.5876 1.62091 1.5876h2.05467c1.7 0 3.0921-1.3634 3.0921-3.0285v-2.1889h2.2348c1.7 0 3.0921-1.3635 3.0921-3.0286v-2.0124c0-.89824-.736-1.5876-1.621-1.5876zm-5.1467 8.7926c0 .8939-.7387 1.6174-1.6513 1.6174h-2.05467c-.10095 0-.18007-.0776-.18007-.1764v-2.0125c0-.8939.73864-1.6173 1.65134-1.6173h2.2347zm5.3268-5.2174c0 .8939-.7386 1.6173-1.6512 1.6173h-2.2348v-2.1888c0-.89384.7386-1.61731 1.6513-1.61731h2.0546c.101 0 .1801.0775.1801.17637z" stroke="#2f80ed" stroke-width=".5"/></g></svg>

<svg width="146" height="26" viewBox="0 0 146 26" fill="none" xmlns="http://www.w3.org/2000/svg">
<path d="M30.3445 20.5833H33.2588V15.2589H36.3382C40.0539 15.2589 42.0491 13.0738 42.0491 10.0423C42.0491 7.0339 40.0775 4.82569 36.3775 4.82569H30.3445V20.5833ZM33.2588 12.9122V7.21086H35.9298C38.1136 7.21086 39.0798 8.36498 39.0798 10.0423C39.0798 11.7196 38.1136 12.9122 35.9455 12.9122H33.2588ZM47.2986 4.82569H44.4549V20.5833H47.2986V4.82569ZM53.6951 20.8218C55.5882 20.8218 56.7194 19.9523 57.2379 18.9598H57.3321V20.5833H60.0659V12.6737C60.0659 9.54988 57.4657 8.61119 55.164 8.61119C52.6267 8.61119 50.6785 9.71915 50.0501 11.8735L52.7053 12.2428C52.9881 11.4349 53.7893 10.7425 55.1797 10.7425C56.4995 10.7425 57.2222 11.4042 57.2222 12.5659V12.6121C57.2222 13.4124 56.3659 13.4508 54.2371 13.674C51.8961 13.9201 49.6573 14.6049 49.6573 17.2671C49.6573 19.5907 51.3934 20.8218 53.6951 20.8218ZM54.4335 18.7752C53.2472 18.7752 52.3989 18.2442 52.3989 17.2209C52.3989 16.1515 53.3494 15.7052 54.622 15.5282C55.3682 15.4282 56.8608 15.2435 57.23 14.9511V16.3437C57.23 17.6595 56.146 18.7752 54.4335 18.7752ZM62.9253 20.5833H65.7691V8.76508H62.9253V20.5833ZM64.355 7.08775C65.2584 7.08775 65.9968 6.41067 65.9968 5.57971C65.9968 4.74105 65.2584 4.06396 64.355 4.06396C63.4438 4.06396 62.7054 4.74105 62.7054 5.57971C62.7054 6.41067 63.4438 7.08775 64.355 7.08775ZM71.5369 13.6586C71.5369 11.9504 72.5896 10.9656 74.09 10.9656C75.559 10.9656 76.4388 11.9119 76.4388 13.4893V20.5833H79.2825V13.0584C79.2903 10.227 77.6407 8.61119 75.1504 8.61119C73.3437 8.61119 72.1026 9.45755 71.5527 10.7732H71.4113V8.76508H68.6933V20.5833H71.5369V13.6586ZM82.8725 20.5833L84.5929 15.836H91.3486L93.069 20.5833H94.6087L88.7563 4.82569H87.1852L81.3328 20.5833H82.8725ZM85.0642 14.5434L87.9157 6.69536H88.0258L90.8773 14.5434H85.0642ZM101.419 20.8295C103.611 20.8295 104.632 19.4676 105.127 18.3905H105.292V20.5833H106.659V4.82569H105.253V11.0195H105.127C104.648 9.95767 103.65 8.6035 101.443 8.6035C98.4658 8.6035 96.4547 11.0656 96.4547 14.705C96.4547 18.375 98.4579 20.8295 101.419 20.8295ZM101.584 19.5753C99.1806 19.5753 97.8609 17.4364 97.8609 14.6819C97.8609 11.9582 99.1649 9.84995 101.584 9.84995C103.941 9.84995 105.277 11.8504 105.277 14.6819C105.277 17.5364 103.925 19.5753 101.584 19.5753ZM110.641 20.5833H112.041V13.0123C112.041 11.1733 113.289 9.86533 114.963 9.86533C116.612 9.86533 117.571 10.9426 117.571 12.5429V20.5833H119V12.8045C119 11.1041 120.037 9.86533 121.876 9.86533C123.47 9.86533 124.53 10.804 124.53 12.666V20.5833H125.928V12.666C125.928 10.0192 124.538 8.61119 122.299 8.61119C120.54 8.61119 119.268 9.44985 118.726 10.7579H118.623C118.089 9.41908 117.028 8.61119 115.363 8.61119C113.784 8.61119 112.606 9.35752 112.127 10.5809H112.001V8.76508H110.641V20.5833ZM129.646 20.5833H131.053V8.76508H129.646V20.5833ZM130.361 6.73383C130.934 6.73383 131.413 6.28757 131.413 5.74898C131.413 5.21039 130.934 4.76413 130.361 4.76413C129.787 4.76413 129.316 5.21039 129.316 5.74898C129.316 6.28757 129.787 6.73383 130.361 6.73383ZM136.148 13.1969C136.148 11.1349 137.531 9.86533 139.432 9.86533C141.286 9.86533 142.481 11.081 142.481 13.0123V20.5833H143.879V12.9276C143.879 10.1269 142.221 8.61119 139.786 8.61119C138.019 8.61119 136.801 9.41139 136.236 10.6194H136.11V8.76508H134.75V20.5833H136.148V13.1969Z" fill="#262D3F"/>
<path d="M26.1608 11.2572L21.0312 2.59049C20.5182 1.64847 19.4923 1.08325 18.4023 1.08325H8.14317C7.05314 1.08325 6.02723 1.64847 5.51428 2.59049L0.384717 11.2572C-0.128239 12.1992 -0.128239 13.3296 0.384717 14.2716L5.51428 22.9383C6.02723 23.8804 7.05314 24.4456 8.14317 24.4456H18.4023C19.4923 24.4456 20.5182 23.8804 21.0312 22.9383L26.1608 14.2716C26.6736 13.3296 26.6736 12.1992 26.1608 11.2572ZM24.1731 13.1412L19.0435 21.8079C18.9152 22.0591 18.6588 22.1847 18.3382 22.1847H8.14317C7.8867 22.1847 7.5661 22.0591 7.43786 21.8079L2.3083 13.1412C2.18006 12.8901 2.18006 12.576 2.3083 12.3248L7.43786 3.65813C7.5661 3.40693 7.82257 3.28132 8.14317 3.28132H18.4023C18.6588 3.28132 18.9793 3.40693 19.1076 3.65813L24.2371 12.3248C24.3654 12.6388 24.3654 12.8901 24.1731 13.1412Z" fill="#2F80ED"/>
<path d="M17.9394 7.3125H15.8848C14.1848 7.3125 12.7927 8.67599 12.7927 10.3411V12.5299H10.558C8.85792 12.5299 7.46582 13.8934 7.46582 15.5585V17.5709C7.46582 18.4409 8.19841 19.1585 9.08673 19.1585H11.1414C12.8414 19.1585 14.2335 17.7951 14.2335 16.13V13.9411H16.4683C18.1683 13.9411 19.5604 12.5776 19.5604 10.9125V8.9001C19.5604 8.00186 18.8244 7.3125 17.9394 7.3125ZM12.7927 16.1051C12.7927 16.999 12.054 17.7225 11.1414 17.7225H9.08673C8.98578 17.7225 8.90666 17.6449 8.90666 17.5461V15.5336C8.90666 14.6397 9.6453 13.9163 10.558 13.9163H12.7927V16.1051ZM18.1195 10.8877C18.1195 11.7816 17.3809 12.505 16.4683 12.505H14.2335V10.3162C14.2335 9.42236 14.9721 8.69889 15.8848 8.69889H17.9394C18.0404 8.69889 18.1195 8.77639 18.1195 8.87526V10.8877Z" fill="#2F80ED" stroke="#2F80ED" stroke-width="0.5"/>
</svg>
